source/images/icons/icon-strategy.svg

<svg width="100" height="100" viewBox="0 0 100 100" xmlns="http://www.w3.org/2000/svg" xmlns:xlink="http://www.w3.org/1999/xlink" xmlns:sketch="http://www.bohemiancoding.com/sketch/ns"><title>icon-strategy</title><desc>Created with Sketch.</desc><defs><path id="a" d="M13.457 1.953c0 .43.277.824.742 1.145v1.683c-2.179 2.231-5.98 6.703-6.828 11.442-.156.597-.242 1.218-.242 1.859 0 2.352 1.113 4.477 2.918 6.031v.856c-.727.289-1.145.625-1.145.984 0 .5.813.957 2.149 1.301v1.844c-1.571.496-2.539 1.179-2.539 1.929 0 .594.601 1.141 1.625 1.59-3.25.496-5.379 1.321-5.379 2.254 0 1.141 3.172 2.117 7.691 2.535v9.828l-1.238 6.797c-2.477.469-4.082 1.215-4.082 2.055v2.34c-.086.969-.313 2.058-.859 2.648-.977 1.051-3.665 3.067-4.497 4.555-.179.223-.273.449-.273.683 0 .399.27.782.766 1.141v.004s.25.102-.274.656c-.523.555-1.222 1.254-1.222 2.543 0 2.399 7.418 4.344 16.566 4.344 9.152 0 16.566-1.945 16.566-4.344 0-1.289-.699-1.988-1.222-2.543-.524-.554-.274-.656-.274-.656v-.004c.496-.359.77-.742.77-1.141 0-.234-.098-.46-.274-.683-.832-1.488-3.519-3.504-4.496-4.555-.547-.59-.773-1.679-.859-2.648v-2.34c0-.84-1.606-1.586-4.082-2.055l-1.242-6.797v-9.832c4.519-.418 7.691-1.394 7.691-2.535 0-.933-2.129-1.758-5.379-2.254 1.024-.449 1.629-1 1.629-1.59 0-.75-.969-1.433-2.543-1.929v-1.844c1.336-.344 2.149-.801 2.149-1.301 0-.359-.418-.691-1.145-.984v-.856c1.805-1.554 2.918-3.683 2.918-6.031 0-.637-.086-1.258-.242-1.859-.551-3.074-2.34-6.031-4.129-8.344l-2.004 5.898s-1.879-.394-1.922-.656c-.035-.211 1.809-5.015 2.539-6.918-.473-.539-.922-1.019-1.316-1.422v-1.679c.465-.321.742-.715.742-1.145.019-1.078-1.719-1.953-3.867-1.953-2.145 0-3.887.875-3.887 1.953z"/></defs><g sketch:type="MSLayerGroup" fill="none"><path d="M45.457 13.953c0 .43.277.824.742 1.145v1.683c-2.179 2.231-5.98 6.703-6.828 11.442-.156.597-.242 1.218-.242 1.859 0 2.352 1.113 4.477 2.918 6.031v.856c-.727.289-1.145.625-1.145.984 0 .5.813.957 2.149 1.301v1.844c-1.571.496-2.539 1.179-2.539 1.929 0 .594.601 1.141 1.625 1.59-3.25.496-5.379 1.321-5.379 2.254 0 1.141 3.172 2.117 7.691 2.535v9.828l-1.238 6.797c-2.477.469-4.082 1.215-4.082 2.055v2.34c-.086.969-.313 2.058-.859 2.648-.977 1.051-3.665 3.067-4.497 4.555-.179.223-.273.449-.273.683 0 .399.27.782.766 1.141v.004s.25.102-.274.656c-.523.555-1.222 1.254-1.222 2.543 0 2.399 7.418 4.344 16.566 4.344 9.152 0 16.566-1.945 16.566-4.344 0-1.289-.699-1.988-1.222-2.543-.524-.554-.274-.656-.274-.656v-.004c.496-.359.77-.742.77-1.141 0-.234-.098-.46-.274-.683-.832-1.488-3.519-3.504-4.496-4.555-.547-.59-.773-1.679-.859-2.648v-2.34c0-.84-1.606-1.586-4.082-2.055l-1.242-6.797v-9.832c4.519-.418 7.691-1.394 7.691-2.535 0-.933-2.129-1.758-5.379-2.254 1.024-.449 1.629-1 1.629-1.59 0-.75-.969-1.433-2.543-1.929v-1.844c1.336-.344 2.149-.801 2.149-1.301 0-.359-.418-.691-1.145-.984v-.856c1.805-1.554 2.918-3.683 2.918-6.031 0-.637-.086-1.258-.242-1.859-.551-3.074-2.34-6.031-4.129-8.344l-2.004 5.898s-1.879-.394-1.922-.656c-.035-.211 1.809-5.015 2.539-6.918-.473-.539-.922-1.019-1.316-1.422v-1.679c.465-.321.742-.715.742-1.145.019-1.078-1.719-1.953-3.867-1.953-2.145 0-3.887.875-3.887 1.953" fill="#fff" sketch:type="MSShapeGroup"/><g transform="translate(32 12)"><mask id="b" sketch:name="Clip 3"><use xlink:href="#a"/></mask><path d="M.777 0h33.133v75h-33.133v-75z" fill="#fff" sketch:type="MSShapeGroup" mask="url(#b)"/></g></g></svg>

<?xml version="1.0" encoding="UTF-8" standalone="no"?>
<svg width="100px" height="100px" viewBox="0 0 100 100" version="1.1" xmlns="http://www.w3.org/2000/svg" xmlns:xlink="http://www.w3.org/1999/xlink" xmlns:sketch="http://www.bohemiancoding.com/sketch/ns">
    <!-- Generator: Sketch 3.5.1 (25234) - http://www.bohemiancoding.com/sketch -->
    <title>icon-strategy</title>
    <desc>Created with Sketch.</desc>
    <defs>
        <path id="path-1" d="M13.457,1.953 C13.457,2.383 13.734,2.777 14.199,3.098 L14.199,4.781 C12.02,7.012 8.219,11.484 7.371,16.223 C7.215,16.82 7.129,17.441 7.129,18.082 C7.129,20.434 8.242,22.559 10.047,24.113 L10.047,24.969 C9.32,25.258 8.902,25.594 8.902,25.953 C8.902,26.453 9.715,26.91 11.051,27.254 L11.051,29.098 C9.48,29.594 8.512,30.277 8.512,31.027 C8.512,31.621 9.113,32.168 10.137,32.617 C6.887,33.113 4.758,33.938 4.758,34.871 C4.758,36.012 7.93,36.988 12.449,37.406 L12.449,47.234 L11.211,54.031 C8.734,54.5 7.129,55.246 7.129,56.086 L7.129,58.426 C7.043,59.395 6.816,60.484 6.27,61.074 C5.293,62.125 2.605,64.141 1.773,65.629 C1.594,65.852 1.5,66.078 1.5,66.312 C1.5,66.711 1.77,67.094 2.266,67.453 L2.266,67.457 C2.266,67.457 2.516,67.559 1.992,68.113 C1.469,68.668 0.77,69.367 0.77,70.656 C0.77,73.055 8.188,75 17.336,75 C26.488,75 33.902,73.055 33.902,70.656 C33.902,69.367 33.203,68.668 32.68,68.113 C32.156,67.559 32.406,67.457 32.406,67.457 L32.406,67.453 C32.902,67.094 33.176,66.711 33.176,66.312 C33.176,66.078 33.078,65.852 32.902,65.629 C32.07,64.141 29.383,62.125 28.406,61.074 C27.859,60.484 27.633,59.395 27.547,58.426 L27.547,56.086 C27.547,55.246 25.941,54.5 23.465,54.031 L22.223,47.234 L22.223,37.402 C26.742,36.984 29.914,36.008 29.914,34.867 C29.914,33.934 27.785,33.109 24.535,32.613 C25.559,32.164 26.164,31.613 26.164,31.023 C26.164,30.273 25.195,29.59 23.621,29.094 L23.621,27.25 C24.957,26.906 25.77,26.449 25.77,25.949 C25.77,25.59 25.352,25.258 24.625,24.965 L24.625,24.109 C26.43,22.555 27.543,20.426 27.543,18.078 C27.543,17.441 27.457,16.82 27.301,16.219 C26.75,13.145 24.961,10.188 23.172,7.875 L21.168,13.773 C21.168,13.773 19.289,13.379 19.246,13.117 C19.211,12.906 21.055,8.102 21.785,6.199 C21.312,5.66 20.863,5.18 20.469,4.777 L20.469,3.098 C20.934,2.777 21.211,2.383 21.211,1.953 C21.23,0.875 19.492,0 17.344,0 C15.199,0 13.457,0.875 13.457,1.953 L13.457,1.953 Z"></path>
    </defs>
    <g id="Page-1" stroke="none" stroke-width="1" fill="none" fill-rule="evenodd" sketch:type="MSPage">
        <g id="icon-strategy" sketch:type="MSArtboardGroup">
            <g id="Page-1" sketch:type="MSLayerGroup" transform="translate(32.000000, 12.000000)">
                <path d="M13.457,1.953 C13.457,2.383 13.734,2.777 14.199,3.098 L14.199,4.781 C12.02,7.012 8.219,11.484 7.371,16.223 C7.215,16.82 7.129,17.441 7.129,18.082 C7.129,20.434 8.242,22.559 10.047,24.113 L10.047,24.969 C9.32,25.258 8.902,25.594 8.902,25.953 C8.902,26.453 9.715,26.91 11.051,27.254 L11.051,29.098 C9.48,29.594 8.512,30.277 8.512,31.027 C8.512,31.621 9.113,32.168 10.137,32.617 C6.887,33.113 4.758,33.938 4.758,34.871 C4.758,36.012 7.93,36.988 12.449,37.406 L12.449,47.234 L11.211,54.031 C8.734,54.5 7.129,55.246 7.129,56.086 L7.129,58.426 C7.043,59.395 6.816,60.484 6.27,61.074 C5.293,62.125 2.605,64.141 1.773,65.629 C1.594,65.852 1.5,66.078 1.5,66.312 C1.5,66.711 1.77,67.094 2.266,67.453 L2.266,67.457 C2.266,67.457 2.516,67.559 1.992,68.113 C1.469,68.668 0.77,69.367 0.77,70.656 C0.77,73.055 8.188,75 17.336,75 C26.488,75 33.902,73.055 33.902,70.656 C33.902,69.367 33.203,68.668 32.68,68.113 C32.156,67.559 32.406,67.457 32.406,67.457 L32.406,67.453 C32.902,67.094 33.176,66.711 33.176,66.312 C33.176,66.078 33.078,65.852 32.902,65.629 C32.07,64.141 29.383,62.125 28.406,61.074 C27.859,60.484 27.633,59.395 27.547,58.426 L27.547,56.086 C27.547,55.246 25.941,54.5 23.465,54.031 L22.223,47.234 L22.223,37.402 C26.742,36.984 29.914,36.008 29.914,34.867 C29.914,33.934 27.785,33.109 24.535,32.613 C25.559,32.164 26.164,31.613 26.164,31.023 C26.164,30.273 25.195,29.59 23.621,29.094 L23.621,27.25 C24.957,26.906 25.77,26.449 25.77,25.949 C25.77,25.59 25.352,25.258 24.625,24.965 L24.625,24.109 C26.43,22.555 27.543,20.426 27.543,18.078 C27.543,17.441 27.457,16.82 27.301,16.219 C26.75,13.145 24.961,10.188 23.172,7.875 L21.168,13.773 C21.168,13.773 19.289,13.379 19.246,13.117 C19.211,12.906 21.055,8.102 21.785,6.199 C21.312,5.66 20.863,5.18 20.469,4.777 L20.469,3.098 C20.934,2.777 21.211,2.383 21.211,1.953 C21.23,0.875 19.492,0 17.344,0 C15.199,0 13.457,0.875 13.457,1.953" id="Fill-1" fill="#000000" sketch:type="MSShapeGroup"></path>
                <g id="Group-4">
                    <mask id="mask-2" sketch:name="Clip 3" fill="white">
                        <use xlink:href="#path-1"></use>
                    </mask>
                    <g id="Clip-3"></g>
                    <path d="M0.777,0 L33.91,0 L33.91,75 L0.777,75 L0.777,0 Z" id="Fill-2" fill="#000000" sketch:type="MSShapeGroup" mask="url(#mask-2)"></path>
                </g>
            </g>
        </g>
    </g>
</svg>
